Dominus_Funeral/22/apps/vmware-server.svg

<svg xmlns="http://www.w3.org/2000/svg" width="24" height="24" viewBox="0 0 6.35 6.35"><defs><linearGradient id="a"><stop offset="0" stop-color="#000003"/><stop offset="1" stop-color="#00000a" stop-opacity="0"/></linearGradient></defs><path d="M3.57.34c-.1 0-.1 0-.1.12v2.27c0 .14 0 .13.13.13h2.26c.14 0 .13.01.13-.09V.44c0-.1 0-.1-.1-.1zm.5.6H5.4v1.33H4.06zM.72.35H2.5a.37.37 0 1 1 0 .74h-.87l.74.74h.65v.75h-.15c-.3 0-.3 0-.3.3v.15h-.74v-.68L1.1 1.6v.9a.37.37 0 0 1-.74 0V.72c0-.2.16-.37.37-.37zm3.04 2.97h.75V4l.74.74v-.9a.37.37 0 0 1 .74 0v1.79c0 .2-.16.37-.37.37H3.84a.37.37 0 0 1 0-.75h.87l-.74-.75h-.65v-.73h.14c.3 0 .3 0 .3-.3zm-3.3.15c-.1 0-.1 0-.1.12v2.28c0 .14 0 .14.11.14h2.27c.13 0 .13 0 .13-.1V3.58c0-.1 0-.1-.12-.1zm.48.6h1.34V5.4H.94z" fill="#1a1a1a"/></svg>

<?xml version="1.0" encoding="UTF-8" standalone="no"?>
<svg
   xmlns:dc="http://purl.org/dc/elements/1.1/"
   xmlns:cc="http://creativecommons.org/ns#"
   xmlns:rdf="http://www.w3.org/1999/02/22-rdf-syntax-ns#"
   xmlns:svg="http://www.w3.org/2000/svg"
   xmlns="http://www.w3.org/2000/svg"
   xmlns:sodipodi="http://sodipodi.sourceforge.net/DTD/sodipodi-0.dtd"
   xmlns:inkscape="http://www.inkscape.org/namespaces/inkscape"
   width="24"
   height="24"
   viewBox="0 0 6.35 6.35"
   version="1.1"
   id="svg11"
   sodipodi:docname="vmware-server.svg"
   inkscape:version="0.92.4 (5da689c313, 2019-01-14)">
  <metadata
     id="metadata15">
    <rdf:RDF>
      <cc:Work
         rdf:about="">
        <dc:format>image/svg+xml</dc:format>
        <dc:type
           rdf:resource="http://purl.org/dc/dcmitype/StillImage" />
        <dc:title></dc:title>
      </cc:Work>
    </rdf:RDF>
  </metadata>
  <sodipodi:namedview
     pagecolor="#ffffff"
     bordercolor="#666666"
     borderopacity="1"
     objecttolerance="10"
     gridtolerance="10"
     guidetolerance="10"
     inkscape:pageopacity="0"
     inkscape:pageshadow="2"
     inkscape:window-width="1138"
     inkscape:window-height="480"
     id="namedview13"
     showgrid="false"
     inkscape:zoom="9.8333333"
     inkscape:cx="1.0677966"
     inkscape:cy="12"
     inkscape:window-x="0"
     inkscape:window-y="25"
     inkscape:window-maximized="0"
     inkscape:current-layer="svg11" />
  <defs
     id="defs7">
    <linearGradient
       id="a">
      <stop
         offset="0"
         stop-color="#000003"
         id="stop2" />
      <stop
         offset="1"
         stop-color="#00000a"
         stop-opacity="0"
         id="stop4" />
    </linearGradient>
  </defs>
  <path
     d="m 3.57,0.34 c -0.1,0 -0.1,0 -0.1,0.12 v 2.27 c 0,0.14 0,0.13 0.13,0.13 H 5.86 C 6,2.86 5.99,2.87 5.99,2.77 V 0.44 c 0,-0.1 0,-0.1 -0.1,-0.1 z m 0.5,0.6 H 5.4 V 2.27 H 4.06 Z M 0.72,0.35 H 2.5 a 0.37,0.37 0 1 1 0,0.74 H 1.63 L 2.37,1.83 H 3.02 V 2.58 H 2.87 c -0.3,0 -0.3,0 -0.3,0.3 V 3.03 H 1.83 V 2.35 L 1.1,1.6 v 0.9 a 0.37,0.37 0 0 1 -0.74,0 V 0.72 c 0,-0.2 0.16,-0.37 0.37,-0.37 z M 3.76,3.32 H 4.51 V 4 l 0.74,0.74 v -0.9 a 0.37,0.37 0 0 1 0.74,0 V 5.63 C 5.99,5.83 5.83,6 5.62,6 H 3.84 a 0.375,0.375 0 0 1 0,-0.75 H 4.71 L 3.97,4.5 H 3.32 V 3.77 h 0.14 c 0.3,0 0.3,0 0.3,-0.3 z m -3.3,0.15 c -0.1,0 -0.1,0 -0.1,0.12 v 2.28 c 0,0.14 0,0.14 0.11,0.14 h 2.27 c 0.13,0 0.13,0 0.13,-0.1 V 3.58 c 0,-0.1 0,-0.1 -0.12,-0.1 z m 0.48,0.6 H 2.28 V 5.4 H 0.94 Z"
     id="path9"
     inkscape:connector-curvature="0"
     style="fill:#1a1a1a" />
</svg>
